X:1
T:Joe Hill's Will
M:3/4
L:1/8
K:C
 z2 z DD A| G3E/2-D/2 CE| D2 z AA c| B3 G G3/2 B/2| A2 A2 Ac| d3 AB/2-A/2 G|\
M:2/4
 ADD A|
M:3/4
 G3 E/2D/2 CE| D6|
